svg/set/9ED/WM.svg

<?xml version="1.0" encoding="UTF-8" standalone="no"?>
<svg
   version="1.1"
   width="600.0011"
   height="503.25021"
   id="svg1"
   xmlns="http://www.w3.org/2000/svg"
   xmlns:svg="http://www.w3.org/2000/svg">
  <defs
     id="defs1" />
  <path
     d="m 171.38498,0 c 0,0 -31.64844,3.3836431 -31.64844,36.158203 L 22.090055,68.988281 c 0,0 -29.391431,11.277594 -20.369141,49.746099 l 97.292969,363.02343 c 0,0 20.368897,27.17687 44.107417,20.41016 L 300.06271,458.9668 456.9338,502.16797 c 23.73852,6.76671 44.10743,-20.41016 44.10743,-20.41016 L 598.27951,118.73438 C 607.30179,80.265875 577.92404,68.988281 577.92404,68.988281 L 460.31662,36.158203 C 460.31662,3.3836431 428.61544,0 428.61544,0 Z m 1.01757,13.546875 h 255.19532 c 1.49913,0.26132 6.02336,1.279983 10.31445,4.126953 6.02403,4.02977 8.81641,9.888445 8.81641,18.484375 v 10.314453 c 0,0 124.85438,34.809568 126.68359,35.304688 3.21832,1.49913 13.05273,7.468172 13.05273,23.037106 0,3.17706 -0.42562,6.72642 -1.34765,10.70117 -0.2063,0.70144 -94.87163,354.15177 -96.42578,359.84571 -4.19481,4.7312 -16.44903,16.97255 -28.00196,13.69922 L 300.00607,444.8418 139.36544,489.06055 c -11.55292,3.27333 -23.84814,-8.96802 -28.04296,-13.69922 -1.49913,-5.69394 -96.219729,-359.14372 -96.384769,-359.84571 -0.90828,-3.97473 -1.333984,-7.52411 -1.333984,-10.70117 0,-15.568934 9.765654,-21.537976 13.052734,-23.037106 1.82921,-0.49512 126.628909,-35.304688 126.628909,-35.304688 V 36.158203 c 0,-8.59593 2.79017,-14.454605 8.85546,-18.484375 4.24984,-2.84697 8.8176,-3.865083 10.26172,-4.126953 z m 1.51172,16.972656 c 0,0 -5.26758,2.254485 -5.26758,6.765625 V 412.76953 c 0,0 0,7.57813 5.26758,7.57813 H 426.5256 c 0,0 6.00977,-1.51284 6.00977,-7.57813 V 37.285156 c 0,0 -0.74218,-6.765625 -6.00977,-6.765625 z M 449.46505,64.476562 V 413.52539 c 0,0 -3.01173,22.61133 -21.11132,22.61133 h -97.99219 l 131.19336,36.21289 c 0,0 7.52264,3.75413 11.27734,-4.51172 l 96.55078,-358.18164 c 0,0 3.75504,-11.277053 -5.32226,-14.289062 z M 150.54709,65.232422 35.953336,96.123047 c -9.03604,2.99826 -5.267578,14.345703 -5.267578,14.345703 L 127.16623,468.5957 c 3.76846,8.26584 11.34765,4.50977 11.34765,4.50977 l 131.13867,-36.15625 h -97.99414 c -18.11334,0 -21.11133,-22.67969 -21.11132,-22.67969 z M 316.1799,82.09375 c 23.95858,0 43.02156,8.707307 57.16015,26.10547 14.06982,17.3569 21.16602,39.05954 21.16602,64.90234 0,41.10917 -18.00289,81.02116 -54.05078,119.91602 -36.04789,38.94988 -77.41833,60.92935 -124.09766,65.92187 l -10.90625,-11.49804 c 63.12851,-17.89329 108.2537,-56.25186 135.2793,-115.18555 -9.4624,7.04178 -18.85628,12.30878 -28.26367,15.89844 -9.35237,3.5484 -18.69092,5.32226 -27.98828,5.32226 -19.83253,0 -35.19439,-6.56056 -46.21094,-19.72265 -11.0578,-13.2171 -16.54492,-28.84084 -16.54492,-47.10547 0,-25.69152 9.03517,-49.53951 27.13476,-71.51758 18.09959,-22.019343 40.50298,-33.03711 67.32227,-33.03711 z m -0.27344,14.882812 c -16.00906,10e-7 -29.3373,8.759398 -39.96875,26.267578 -10.70021,17.57696 -16.00781,37.67246 -16.00781,60.2832 0,15.5827 3.86485,27.28641 11.49804,34.97461 7.67444,7.74322 17.02611,11.60743 28.09766,11.60743 8.91226,0 17.56391,-1.8843 25.88477,-5.58399 8.33462,-3.76846 16.3389,-9.35217 24.06836,-16.82031 6.39537,-19.02108 9.62695,-35.93767 9.62695,-50.72266 0,-17.50819 -4.08466,-31.85333 -12.19922,-43.07617 -8.16957,-11.29162 -18.48433,-16.929687 -31,-16.929688 z"
     id="path1" />
</svg>

<?xml version="1.0" encoding="UTF-8" standalone="no"?>
<svg xmlns="http://www.w3.org/2000/svg" version="1.1" width="600" height="503.24957">
  <path d="M 171.38477 0 C 171.38477 0 139.73633 3.3836431 139.73633 36.158203 L 22.089844 68.988281 C 22.089844 68.988281 -7.3015869 80.265875 1.7207031 118.73438 L 99.013672 481.75781 C 99.013672 481.75781 119.38257 508.93468 143.12109 502.16797 L 300.0625 458.9668 L 456.93359 502.16797 C 480.67211 508.93468 501.04102 481.75781 501.04102 481.75781 L 598.2793 118.73438 C 607.30158 80.265875 577.92383 68.988281 577.92383 68.988281 L 460.31641 36.158203 C 460.31641 3.3836431 428.61523 4.7369516e-015 428.61523 0 L 171.38477 0 z M 172.40234 13.546875 L 427.59766 13.546875 C 429.09679 13.808195 433.62102 14.826858 437.91211 17.673828 C 443.93614 21.703598 446.72852 27.562273 446.72852 36.158203 L 446.72852 46.472656 C 446.72852 46.472656 571.5829 81.282224 573.41211 81.777344 C 576.63043 83.276474 586.46484 89.245516 586.46484 104.81445 C 586.46484 107.99151 586.03922 111.54087 585.11719 115.51562 C 584.91089 116.21706 490.24556 469.66739 488.69141 475.36133 C 484.4966 480.09253 472.24238 492.33388 460.68945 489.06055 L 300.00586 444.8418 L 139.36523 489.06055 C 127.81231 492.33388 115.51709 480.09253 111.32227 475.36133 C 109.82314 469.66739 15.10254 116.21761 14.9375 115.51562 C 14.02922 111.54089 13.603516 107.99151 13.603516 104.81445 C 13.603516 89.245516 23.36917 83.276474 26.65625 81.777344 C 28.48546 81.282224 153.28516 46.472656 153.28516 46.472656 L 153.28516 36.158203 C 153.28516 27.562273 156.07533 21.703598 162.14062 17.673828 C 166.39046 14.826858 170.95822 13.808745 172.40234 13.546875 z M 173.91406 30.519531 C 173.91406 30.519531 168.64648 32.774016 168.64648 37.285156 L 168.64648 412.76953 C 168.64648 412.76953 168.64648 420.34766 173.91406 420.34766 L 426.52539 420.34766 C 426.52539 420.34766 432.53516 418.83482 432.53516 412.76953 L 432.53516 37.285156 C 432.53516 37.285156 431.79298 30.519531 426.52539 30.519531 L 173.91406 30.519531 z M 449.46484 64.476562 L 449.46484 413.52539 C 449.46484 413.52539 446.45311 436.13672 428.35352 436.13672 L 330.36133 436.13672 L 461.55469 472.34961 C 461.55469 472.34961 469.07733 476.10374 472.83203 467.83789 L 569.38281 109.65625 C 569.38281 109.65625 573.13785 98.379197 564.06055 95.367188 L 449.46484 64.476562 z M 150.54688 65.232422 L 35.953125 96.123047 C 26.917085 99.121307 30.685547 110.46875 30.685547 110.46875 L 127.16602 468.5957 C 130.93448 476.86154 138.51367 473.10547 138.51367 473.10547 L 269.65234 436.94922 L 171.6582 436.94922 C 153.54486 436.94922 150.54687 414.26953 150.54688 414.26953 L 150.54688 65.232422 z M 316.17969 82.09375 C 340.13827 82.09375 359.20125 90.801057 373.33984 108.19922 C 387.40966 125.55612 394.50586 147.25876 394.50586 173.10156 C 394.50586 214.21073 376.50297 254.12272 340.45508 293.01758 C 304.40719 331.96746 263.03675 353.94693 216.35742 358.93945 L 205.45117 347.44141 C 268.57968 329.54812 313.70487 291.18955 340.73047 232.25586 C 331.26807 239.29764 321.87419 244.56464 312.4668 248.1543 C 303.11443 251.7027 293.77588 253.47656 284.47852 253.47656 C 264.64599 253.47656 249.28413 246.916 238.26758 233.75391 C 227.20978 220.53681 221.72266 204.91307 221.72266 186.64844 C 221.72266 160.95692 230.75783 137.10893 248.85742 115.13086 C 266.95701 93.111517 289.3604 82.09375 316.17969 82.09375 z M 315.90625 96.976562 C 299.89719 96.976563 286.56895 105.73596 275.9375 123.24414 C 265.23729 140.8211 259.92969 160.9166 259.92969 183.52734 C 259.92969 199.11004 263.79454 210.81375 271.42773 218.50195 C 279.10217 226.24517 288.45384 230.10938 299.52539 230.10938 C 308.43765 230.10938 317.0893 228.22508 325.41016 224.52539 C 333.74478 220.75693 341.74906 215.17322 349.47852 207.70508 C 355.87389 188.684 359.10547 171.76741 359.10547 156.98242 C 359.10547 139.47423 355.02081 125.12909 346.90625 113.90625 C 338.73668 102.61463 328.42192 96.976563 315.90625 96.976562 z "/></svg>
